compile/assets/img/svg/icons_doc.svg

<svg xmlns="http://www.w3.org/2000/svg" width="42.718" height="54.203" viewBox="0 0 42.718 54.203"><path fill-rule="evenodd" clip-rule="evenodd" d="M33.564 54.203H0V0h42.718v45.019l-9.154 9.184zm3.051-48.181H6.103V48.18h25.02v-5.42h5.492V6.022zM10.419 25.017h21.879v2.085H10.419v-2.085zm0-5.212h21.879v2.085H10.419v-2.085zm0-9.381h21.879v6.254H10.419v-6.254zm5.143 25.109c2.528 0 4.577 2.022 4.577 4.517 0 2.495-2.049 4.518-4.577 4.518s-4.577-2.022-4.577-4.518c-.001-2.494 2.049-4.517 4.577-4.517z"/></svg>

<?xml version="1.0" encoding="utf-8"?>
<!-- Generator: Adobe Illustrator 16.0.0, SVG Export Plug-In . SVG Version: 6.00 Build 0)  -->
<!DOCTYPE svg PUBLIC "-//W3C//DTD SVG 1.1//EN" "http://www.w3.org/Graphics/SVG/1.1/DTD/svg11.dtd">
<svg version="1.1" id="Слой_1" xmlns="http://www.w3.org/2000/svg" xmlns:xlink="http://www.w3.org/1999/xlink" x="0px" y="0px"
	 width="42.718px" height="54.203px" viewBox="0 0 42.718 54.203" enable-background="new 0 0 42.718 54.203" xml:space="preserve">
<path fill-rule="evenodd" clip-rule="evenodd" d="M33.564,54.203H0V0h42.718v45.019L33.564,54.203z M36.615,6.022H6.103v42.158
	h25.02v-5.42h5.492V6.022z M10.419,25.017h21.879v2.085H10.419V25.017z M10.419,19.805h21.879v2.085H10.419V19.805z M10.419,10.424
	h21.879v6.254H10.419V10.424z M15.562,35.533c2.528,0,4.577,2.022,4.577,4.517c0,2.495-2.049,4.518-4.577,4.518
	s-4.577-2.022-4.577-4.518C10.984,37.556,13.034,35.533,15.562,35.533z"/>
</svg>
